X:22
T: G\aangl\aat fr\aan Vigelsj\"o av Sten Blomstr\"om (Swedish Walking Tune)
O:Sweden
C:Sten Blomstr\"om
R:G\aangl\aat
M: 2/4
L: 1/16
Q:80
K: G
%P:A
"G"B4 "D7"A2GF | "G"G2G2 D4 | B4 "D7"AGAc | "G"B2B2 "D7"A4 \
| "G"d2-d2 G2AB |
 "C"c2c2 "G"B4 | "D7"ABAG FDEF |1 "G"G4- G4 :|2 "G"G2B2 c2d2 |]
%P:B
 "C"e3d cBcd \
| e2g2 f2e2 | "G"d3c BABc | d2f2 e2d2 |
 "D7"c3B AGFG \
| A2-A2 D4 |1 "D7"cBA2 cBA2 \
| "G"B2e2 d4 :|2 "D7"AGFG AFED | "G"G4- G4 |]

